material/.icons/material/view-grid-plus.svg

<svg xmlns="http://www.w3.org/2000/svg" viewBox="0 0 24 24"><path d="M13 3v8h8V3h-8M3 21h8v-8H3v8M3 3v8h8V3H3m10 13h3v-3h2v3h3v2h-3v3h-2v-3h-3v-2z"/></svg>

<?xml version="1.0" encoding="UTF-8"?><!DOCTYPE svg PUBLIC "-//W3C//DTD SVG 1.1//EN" "http://www.w3.org/Graphics/SVG/1.1/DTD/svg11.dtd"><svg xmlns="http://www.w3.org/2000/svg" xmlns:xlink="http://www.w3.org/1999/xlink" version="1.1" id="mdi-view-grid-plus" width="24" height="24" viewBox="0 0 24 24"><path d="M13 3V11H21V3H13M3 21H11V13H3V21M3 3V11H11V3H3M13 16H16V13H18V16H21V18H18V21H16V18H13V16Z" /></svg>
